X: 1
T: What Child Is This?
T: Greensleeves
O: trad England
M: 6/8
L: 1/8
K: Am
B \
| "Am"c2d e>fe | "G"d2B G>AB | "Am"c2A "(F)"A>^GA | "E7"B2^G E2B \
| "Am"c2d e>fe | "G"d2B G>AB | "Am(F)"c>BA "E7"^G>^FG | "Am"A3 A2 |]
z \
| "C"g3 g>fe | "G"d2B G>AB | "Am"c2A "(F)"A>^GA | "E7"B2^G E3 \
| "C"g3 g>fe | "G"d2B G>AB | "Am(F)"c>BA "E7"^G>^FG | "Am"A3 A2 |]
